X:507
T:B507-  When I Have Often Heard Young Maids Complaining
Q:1/4=120
L:1/4
M:3/4
K:G mixolydian
cGe|dBg|eca|f2(e/d/)|\
gde|AdB|(c/d/) (ed3/4)c/4|B3|\
dGe|dBg|eca|f2(e/d/)|\
gde|AdB|eA3/2G/|G3|\
BcG|A=BA|ef(e/d/)|^c2A|\
f(e/f/)g|(^c/d/)eA|de^c|d3|\
BdB|Gge|cfd|B2G|\
cAe|fdg|(c/d/)d3/2c/|c3|]

